.local/share/icons/Gruvbox-Plus-Dark/apps/16/icon-requests.svg

<svg width="16" height="16" version="1.1" xmlns="http://www.w3.org/2000/svg">
  <defs>
    <style id="current-color-scheme" type="text/css">.ColorScheme-Text { color:#ebdbb2; } .ColorScheme-Highlight { color:#458588; }</style>
  </defs>
  <path class="ColorScheme-Text" d="m10.12 6.039h-3.709c-0.581 0.026-1.136 0.245-1.58 0.624-0.441 0.379-0.745 0.895-0.862 1.463-0.036 0.173-0.053 0.349-0.053 0.525 0 1.003 0.575 1.92 1.48 2.358 0.352 0.17 0.741 0.258 1.133 0.258 0.777 0 1.511-0.343 2.008-0.937 0.333-0.399 0.813-0.65 1.329-0.696 0.519-0.045 1.035 0.115 1.433 0.448 0.399 0.333 0.647 0.813 0.692 1.329 0.046 0.519-0.114 1.035-0.447 1.433-1.241 1.483-3.079 2.341-5.015 2.341-0.98 0-1.95-0.222-2.835-0.649-1.107-0.533-2.04-1.369-2.697-2.407-0.653-1.042-0.999-2.247-0.999-3.478 0-0.44 0.042-0.878 0.131-1.309 0.293-1.427 1.051-2.713 2.158-3.657 1.104-0.947 2.495-1.496 3.948-1.561 0.022-1e-3 0.043-1e-3 0.065-2e-3v-1e-3h3.82v-0.325c1e-3 -0.264 0.106-0.517 0.294-0.702s0.442-0.285 0.704-0.279c0.163 4e-3 0.323 0.049 0.464 0.131l1.965 1.142 1.964 1.142c0.301 0.176 0.487 0.499 0.487 0.85 0 0.35-0.186 0.674-0.487 0.85l-1.964 1.142-1.965 1.142c-0.301 0.175-0.673 0.175-0.974 0-0.302-0.175-0.487-0.499-0.488-0.85v-0.325z" fill="currentColor"/>
</svg>

<svg xmlns="http://www.w3.org/2000/svg" style="isolation:isolate" width="16" height="16" viewBox="0 0 16 16">
 <defs>
  <style id="current-color-scheme" type="text/css">
   .ColorScheme-Text { color:#ebdbb2; } .ColorScheme-Highlight { color:#458588; }
  </style>
  <linearGradient id="arrongin" x1="0%" x2="0%" y1="0%" y2="100%">
   <stop offset="0%" style="stop-color:#d79921; stop-opacity:1"/>
   <stop offset="100%" style="stop-color:#b57614; stop-opacity:1"/>
  </linearGradient>
  <linearGradient id="aurora" x1="0%" x2="0%" y1="0%" y2="100%">
   <stop offset="0%" style="stop-color:#83a598; stop-opacity:1"/>
   <stop offset="100%" style="stop-color:#b16286; stop-opacity:1"/>
  </linearGradient>
  <linearGradient id="fitdance" x1="0%" x2="0%" y1="0%" y2="100%">
   <stop offset="0%" style="stop-color:#8ec07c; stop-opacity:1"/>
   <stop offset="100%" style="stop-color:#458588; stop-opacity:1"/>
  </linearGradient>
  <linearGradient id="oomox" x1="0%" x2="0%" y1="0%" y2="100%">
   <stop offset="0%" style="stop-color:#458588; stop-opacity:1"/>
   <stop offset="100%" style="stop-color:#928374; stop-opacity:1"/>
  </linearGradient>
  <linearGradient id="rainblue" x1="0%" x2="0%" y1="0%" y2="100%">
   <stop offset="0%" style="stop-color:#b8bb26; stop-opacity:1"/>
   <stop offset="100%" style="stop-color:#076678; stop-opacity:1"/>
  </linearGradient>
  <linearGradient id="sunrise" x1="0%" x2="0%" y1="0%" y2="100%">
   <stop offset="0%" style="stop-color: #fe8019; stop-opacity:1"/>
   <stop offset="100%" style="stop-color: #fabd2f; stop-opacity:1"/>
  </linearGradient>
  <linearGradient id="telinkrin" x1="0%" x2="0%" y1="0%" y2="100%">
   <stop offset="0%" style="stop-color: #83a598; stop-opacity:1"/>
   <stop offset="100%" style="stop-color: #83a598; stop-opacity:1"/>
  </linearGradient>
  <linearGradient id="60spsycho" x1="0%" x2="0%" y1="0%" y2="100%">
   <stop offset="0%" style="stop-color: #fb4934; stop-opacity:1"/>
   <stop offset="25%" style="stop-color: #fabd2f; stop-opacity:1"/>
   <stop offset="50%" style="stop-color: #fe8019; stop-opacity:1"/>
   <stop offset="100%" style="stop-color: #689d6a; stop-opacity:1"/>
  </linearGradient>
  <linearGradient id="90ssummer" x1="0%" x2="0%" y1="0%" y2="100%">
   <stop offset="0%" style="stop-color: #b16286; stop-opacity:1"/>
   <stop offset="20%" style="stop-color: #8ec07c; stop-opacity:1"/>
   <stop offset="50%" style="stop-color: #fabd2f; stop-opacity:1"/>
   <stop offset="100%" style="stop-color: #458588; stop-opacity:1"/>
  </linearGradient>
  <linearGradient id="cyberneon" x1="0%" x2="0%" y1="0%" y2="100%">
    <stop offset="0" style="stop-color:#83a598; stop-opacity:1"/>
    <stop offset="1" style="stop-color:#b16286; stop-opacity:1"/>
  </linearGradient>
 </defs>
 <path style="fill:currentColor" class="ColorScheme-Text" d="M 10.122 6.039 L 6.413 6.039 C 5.832 6.065 5.277 6.284 4.833 6.663 C 4.392 7.042 4.088 7.558 3.971 8.126 C 3.935 8.299 3.918 8.475 3.918 8.651 C 3.918 9.654 4.493 10.571 5.398 11.009 C 5.75 11.179 6.139 11.267 6.531 11.267 C 7.308 11.267 8.042 10.924 8.539 10.33 C 8.872 9.931 9.352 9.68 9.868 9.634 C 10.387 9.589 10.903 9.749 11.301 10.082 C 11.7 10.415 11.948 10.895 11.993 11.411 C 12.039 11.93 11.879 12.446 11.546 12.844 C 10.305 14.327 8.467 15.185 6.531 15.185 C 5.551 15.185 4.581 14.963 3.696 14.536 C 2.589 14.003 1.656 13.167 0.999 12.129 C 0.346 11.087 0 9.882 0 8.651 C 0 8.211 0.042 7.773 0.131 7.342 C 0.424 5.915 1.182 4.629 2.289 3.685 C 3.393 2.738 4.784 2.189 6.237 2.124 C 6.259 2.123 6.28 2.123 6.302 2.122 L 6.302 2.121 L 10.122 2.121 L 10.122 1.796 C 10.123 1.532 10.228 1.279 10.416 1.094 C 10.604 0.909 10.858 0.809 11.12 0.815 C 11.283 0.819 11.443 0.864 11.584 0.946 L 13.549 2.088 L 15.513 3.23 C 15.814 3.406 16 3.729 16 4.08 C 16 4.43 15.814 4.754 15.513 4.93 L 13.549 6.072 L 11.584 7.214 C 11.283 7.389 10.911 7.389 10.61 7.214 C 10.308 7.039 10.123 6.715 10.122 6.364 L 10.122 6.039 Z"/>
</svg>
